packages/kaspersky-hexa-ui-icons/src/iconsSVGs/64x42/FlagSa.svg

<svg width="64" height="42" viewBox="0 0 64 42" fill="none" xmlns="http://www.w3.org/2000/svg">
<g clip-path="url(#clip0_37941_2279)">
<rect width="64" height="42" rx="5" fill="white"/>
<rect width="64" height="42" fill="#128C4B"/>
<path fill-rule="evenodd" clip-rule="evenodd" d="M16.5999 25.2H38.9999V23.2653C38.9999 22.2245 40.0951 21.5476 41.026 22.0131L41.7999 22.4V25.2H45.9999C46.7731 25.2 47.3999 25.8268 47.3999 26.6V28C47.3999 29.5464 46.1463 30.8 44.5999 30.8H40.3999C39.6267 30.8 38.9999 30.1732 38.9999 29.4V28H19.9798C19.6085 28 19.2524 27.8525 18.9898 27.59L16.5999 25.2Z" fill="white"/>
<path fill-rule="evenodd" clip-rule="evenodd" d="M16.5999 17.09C16.5999 16.9044 16.6736 16.7263 16.8049 16.595L17.5049 15.895C17.7782 15.6217 17.7782 15.1785 17.5049 14.9051L16.8049 14.2051C16.6736 14.0738 16.5999 13.8958 16.5999 13.7101V11.9001C16.5999 11.5135 16.9133 11.2001 17.2999 11.2001H18.8651C19.1604 11.2001 19.3999 11.4395 19.3999 11.7348C19.3999 12.2991 20.1605 12.4787 20.4129 11.974L20.6216 11.5566C20.7308 11.3381 20.9542 11.2001 21.1984 11.2001H24.2999C24.6865 11.2001 24.9999 11.5135 24.9999 11.9001C24.9999 12.2867 24.6865 12.6001 24.2999 12.6001H22.8999C22.5133 12.6001 22.1999 12.9135 22.1999 13.3001C22.1999 13.6867 22.5133 14.0001 22.8999 14.0001H24.2999C24.6865 14.0001 24.9999 14.3135 24.9999 14.7001V18.9001C24.9999 19.2867 24.6865 19.6001 24.2999 19.6001H22.8999C22.5133 19.6001 22.1999 19.2867 22.1999 18.9001V17.5001C22.1999 17.1135 22.5133 16.8001 22.8999 16.8001C23.2865 16.8001 23.5999 16.4867 23.5999 16.1001C23.5999 15.7135 23.2865 15.4001 22.8999 15.4001H21.4999C21.1133 15.4001 20.7999 15.7135 20.7999 16.1001V18.9001C20.7999 19.2867 20.4865 19.6001 20.0999 19.6001C19.7133 19.6001 19.3999 19.2867 19.3999 18.9001V17.5001C19.3999 17.1135 19.0865 16.8001 18.6999 16.8001C18.3133 16.8001 17.9999 17.1135 17.9999 17.5001V18.9001C17.9999 19.2867 17.6865 19.6001 17.2999 19.6001C16.9133 19.6001 16.5999 19.2867 16.5999 18.9001V17.09Z" fill="white"/>
<path fill-rule="evenodd" clip-rule="evenodd" d="M39 17.09C39 16.9044 39.0737 16.7263 39.205 16.595L39.905 15.895C40.1784 15.6217 40.1784 15.1785 39.905 14.9051L39.205 14.2051C39.0737 14.0738 39 13.8958 39 13.7101V11.9001C39 11.5135 39.3134 11.2001 39.7 11.2001H41.2652C41.5606 11.2001 41.8 11.4395 41.8 11.7348C41.8 12.2991 42.5607 12.4787 42.813 11.974L43.0217 11.5566C43.131 11.3381 43.3543 11.2001 43.5986 11.2001H46.7C47.0866 11.2001 47.4 11.5135 47.4 11.9001C47.4 12.2867 47.0866 12.6001 46.7 12.6001H45.3C44.9134 12.6001 44.6 12.9135 44.6 13.3001C44.6 13.6867 44.9134 14.0001 45.3 14.0001H46.7C47.0866 14.0001 47.4 14.3135 47.4 14.7001V18.9001C47.4 19.2867 47.0866 19.6001 46.7 19.6001H45.3C44.9134 19.6001 44.6 19.2867 44.6 18.9001V17.5001C44.6 17.1135 44.9134 16.8001 45.3 16.8001C45.6866 16.8001 46 16.4867 46 16.1001C46 15.7135 45.6866 15.4001 45.3 15.4001H43.9C43.5134 15.4001 43.2 15.7135 43.2 16.1001V18.9001C43.2 19.2867 42.8866 19.6001 42.5 19.6001C42.1134 19.6001 41.8 19.2867 41.8 18.9001V17.5001C41.8 17.1135 41.4866 16.8001 41.1 16.8001C40.7134 16.8001 40.4 17.1135 40.4 17.5001V18.9001C40.4 19.2867 40.0866 19.6001 39.7 19.6001C39.3134 19.6001 39 19.2867 39 18.9001V17.09Z" fill="white"/>
<path fill-rule="evenodd" clip-rule="evenodd" d="M36.1999 13.2935C36.1999 13.6837 35.9812 14.2188 35.6945 14.5055L35.3054 14.8946C35.0262 15.1738 35.0187 15.6188 35.3054 15.9055L35.6945 16.2946C35.9736 16.5738 36.1999 17.0997 36.1999 17.5066V18.8935C36.1999 19.2837 35.9003 19.6001 35.4934 19.6001H34.1065C33.7163 19.6001 33.3999 19.3004 33.3999 18.8935V17.5066C33.3999 17.1164 33.2707 17.0585 33.0752 17.4495L32.3246 18.9507C32.1453 19.3093 31.6704 19.6001 31.3064 19.6001H28.4935C28.1104 19.6001 27.7999 19.2754 27.7999 18.9001C27.7999 18.5135 28.0996 18.2001 28.5065 18.2001H29.8934C30.2836 18.2001 30.5999 17.8754 30.5999 17.5001C30.5999 17.1135 30.3003 16.8001 29.8934 16.8001H28.5065C28.1163 16.8001 27.7999 16.499 27.7999 16.1134V11.8867C27.7999 11.5075 28.0996 11.2001 28.5065 11.2001H29.8934C30.2836 11.2001 30.5999 11.4997 30.5999 11.9066V13.2935C30.5999 13.6837 30.2752 14.0001 29.8999 14.0001C29.5133 14.0001 29.1999 14.3248 29.1999 14.7001C29.1999 15.0867 29.4996 15.4001 29.9065 15.4001H31.2934C31.6836 15.4001 31.9999 15.0705 31.9999 14.7065V11.8936C31.9999 11.5106 32.3246 11.2001 32.6999 11.2001C33.0865 11.2001 33.3999 11.4997 33.3999 11.9066V13.2935C33.3999 13.6837 33.7246 14.0001 34.0999 14.0001C34.4865 14.0001 34.7999 13.7004 34.7999 13.2935V11.9066C34.7999 11.5164 35.1246 11.2001 35.4999 11.2001C35.8865 11.2001 36.1999 11.4997 36.1999 11.9066V13.2935Z" fill="white"/>
</g>
<defs>
<clipPath id="clip0_37941_2279">
<rect width="64" height="42" rx="5" fill="white"/>
</clipPath>
</defs>
</svg>

<svg xmlns="http://www.w3.org/2000/svg" width="64" height="42" fill="none" viewBox="0 0 64 42"><g clip-path="url(#a)"><rect width="64" height="42" fill="#fff" rx="5"/><path fill="#128c4b" d="M0 0h64v42H0z"/><path fill="#fff" fill-rule="evenodd" d="M16.6 25.2H39v-1.935c0-1.041 1.095-1.718 2.026-1.252l.774.387v2.8H46c.773 0 1.4.627 1.4 1.4V28c0 1.546-1.254 2.8-2.8 2.8h-4.2c-.773 0-1.4-.627-1.4-1.4V28H19.98a1.4 1.4 0 0 1-.99-.41zm0-8.11a.7.7 0 0 1 .205-.495l.7-.7a.7.7 0 0 0 0-.99l-.7-.7a.7.7 0 0 1-.205-.495V11.9a.7.7 0 0 1 .7-.7h1.565a.535.535 0 0 1 .535.535c0 .564.761.744 1.013.239l.209-.417a.645.645 0 0 1 .577-.356h3.102a.7.7 0 1 1 0 1.4h-1.4a.7.7 0 1 0 0 1.4h1.4a.7.7 0 0 1 .7.7v4.2a.7.7 0 0 1-.7.7h-1.4a.7.7 0 0 1-.7-.7v-1.4a.7.7 0 0 1 .7-.7.7.7 0 1 0 0-1.4h-1.4a.7.7 0 0 0-.7.7v2.8a.7.7 0 1 1-1.4 0v-1.4a.7.7 0 1 0-1.4 0v1.4a.7.7 0 1 1-1.4 0zm22.4 0a.7.7 0 0 1 .205-.495l.7-.7a.7.7 0 0 0 0-.99l-.7-.7A.7.7 0 0 1 39 13.71V11.9a.7.7 0 0 1 .7-.7h1.565a.535.535 0 0 1 .535.535c0 .564.761.744 1.013.239l.209-.417a.645.645 0 0 1 .577-.356H46.7a.7.7 0 1 1 0 1.4h-1.4a.7.7 0 1 0 0 1.4h1.4a.7.7 0 0 1 .7.7v4.2a.7.7 0 0 1-.7.7h-1.4a.7.7 0 0 1-.7-.7v-1.4a.7.7 0 0 1 .7-.7.7.7 0 1 0 0-1.4h-1.4a.7.7 0 0 0-.7.7v2.8a.7.7 0 1 1-1.4 0v-1.4a.7.7 0 1 0-1.4 0v1.4a.7.7 0 1 1-1.4 0zm-2.8-3.796c0 .39-.219.925-.505 1.212l-.389.389c-.279.279-.287.724 0 1.011l.389.389c.279.279.505.805.505 1.212v1.387c0 .39-.3.707-.706.707h-1.387c-.39 0-.707-.3-.707-.707v-1.387c0-.39-.129-.448-.325-.057l-.751 1.501c-.179.359-.654.649-1.018.649h-2.813c-.383 0-.694-.325-.694-.7 0-.387.3-.7.707-.7h1.387c.39 0 .707-.325.707-.7 0-.387-.3-.7-.706-.7h-1.387c-.39 0-.707-.301-.707-.687v-4.227c0-.379.3-.687.707-.687h1.387c.39 0 .707.3.707.707v1.387c0 .39-.325.707-.7.707-.387 0-.7.325-.7.7 0 .387.3.7.707.7h1.387c.39 0 .707-.33.707-.694v-2.813c0-.383.325-.693.7-.693.387 0 .7.3.7.707v1.387c0 .39.325.707.7.707.387 0 .7-.3.7-.707v-1.387c0-.39.325-.706.7-.706.387 0 .7.3.7.707z" clip-rule="evenodd"/></g><defs><clipPath id="a"><rect width="64" height="42" fill="#fff" rx="5"/></clipPath></defs></svg>
